packages/icons/general/FacebookColored.svg

<svg width="24" height="24" viewBox="0 0 24 24" xmlns="http://www.w3.org/2000/svg">
<g>
        <path
            d="M2.00195 12.002C2.00312 16.9214 5.58036 21.1101 10.439 21.881V14.892H7.90195V12.002H10.442V9.80204C10.3284 8.75958 10.6845 7.72064 11.4136 6.96698C12.1427 6.21332 13.1693 5.82306 14.215 5.90204C14.9655 5.91417 15.7141 5.98101 16.455 6.10205V8.56104H15.191C14.7558 8.50405 14.3183 8.64777 14.0017 8.95171C13.6851 9.25566 13.5237 9.68693 13.563 10.124V12.002H16.334L15.891 14.893H13.563V21.881C18.8174 21.0506 22.502 16.2518 21.9475 10.9611C21.3929 5.67041 16.7932 1.73997 11.4808 2.01722C6.16831 2.29447 2.0028 6.68235 2.00195 12.002Z"
            fill="#4267B2"
        />
        ,
    </g>
</svg>

<svg xmlns="http://www.w3.org/2000/svg" width="24" height="24">
    <g fill="#4267B2">
        <path d="M2.002 12.002a10.005 10.005 0 0 0 8.437 9.879v-6.989H7.902v-2.89h2.54v-2.2a3.528 3.528 0 0 1 3.773-3.9c.75.012 1.5.079 2.24.2v2.459h-1.264a1.446 1.446 0 0 0-1.628 1.563v1.878h2.771l-.443 2.891h-2.328v6.988a10 10 0 1 0-11.561-9.879Z"/>
        ,
    </g>
</svg>
